!!!COM: Bach, Johann Sebastian
!!!OPR: Joh. Seb. Bachs vierstimmige Choralgesänge
!!!XEN: Four-part Chorales
!!!OTL: Chorale 66. Gott hat das Evangelium
!!!SCT: BWV 319
!!!SCA: Thematisch-systematisches Verzeichnis der musikalischen Werke Johann Sebastian Bach: Bach-Werke-Verzeichnis (Schmieder)
!!!YOR: Bach Gesellschaft Edition xxxix
!!!ENC: Steven Rasmussen
!!!CDT: 1685/3//-1750/7/28/
!!!OCY: Deutschland
!!!YEC: Copyright (c) 1994, 2000 Center for Computer Assisted Research in the Humanities
!!!YEM: Rights to all derivative editions reserved
!!!YEN: United States of America
**kern	**kern	**kern	**kern	**silbe
*I:[BASSO]	*I:[TENORE]	*I:[ALTO]	*I:[SOPRANO]	*I:[SOPRANO]
*clefF4	*clefGv2	*clefG2	*clefG2	*
*k[f#]	*k[f#]	*k[f#]	*k[f#]	*
*e:	*e:	*e:	*e:	*
*M4/4	*M4/4	*M4/4	*M4/4	*
4E	4e	4g	4b	Gott
=1	=1	=1	=1	=1
4D#	4B	4f#	4b	hat
4E	4e	4g	8bL	das
.	.	.	8ccJ	.
4F#	4d	4.a	8ddL	E-
.	.	.	8ccJ	.
4G	4d	.	4b	-van-
.	.	8g	.	.
=2	=2	=2	=2	=2
4C	4e	8gL	4a	-ge-
.	.	16f#L	.	.
.	.	16eJJ	.	.
4D	8dL	4f#	8bL	-li-
.	8cJ	.	8aJ	.
4GG;	4B;	4d;	4g;	-um
4G	8dL	4g	4b	ge-
.	8eJ	.	.	.
=3	=3	=3	=3	=3
4D#	4f#	4a	4b	-ge-
4E	4e	4g	8bL	-ben,
.	.	.	8ccJ	.
4BB	4d	4f#	8ddL	dass
.	.	.	8ccJ	.
8EL	4e	4g	4b	wir
8DnJ	.	.	.	.
=4	=4	=4	=4	=4
4C#	4e	4g	4a	wer-
4D#	4B	4f#	4b	-den
4E;	4B;	4e;	4g;	fromm;
4E	4e	4g	4b	die
=5	=5	=5	=5	=5
8EL	8eL	8gL	4cc	Welt
8F#J	8dJ	8aJ	.	.
4G	4d	8aL	4b	acht'
.	.	8gJ	.	.
8C#L	8eL	8gL	4a	sol-
8D#J	8BJ	8f#J	.	.
8EL	4B	4e	8gL	-chen
8F#J	.	.	8aJ	.
=6	=6	=6	=6	=6
8GL	4.B	8eL	4b	Schatz
8AJ	.	16d#L	.	.
.	.	16c#JJ	.	.
8BL	.	4d#	4f#	nicht
8BBJ	8A	.	.	.
4C;	4G;	4e;	4e;	hoch,
4BB	4d	4g#	4b	der
=7	=7	=7	=7	=7
4AA	8eL	4a	4cc	meh-
.	8f#J	.	.	.
8BBL	4g	8dL	4b	-rer'
8CJ	.	8eJ	.	.
4D	8dL	4f#	4a	Teil
.	8cJ	.	.	.
4E	4B	4e	8gL	fragt
.	.	.	8aJ	.
=8	=8	=8	=8	=8
8GGL	4.B	4e	4b	nichts
8AAJ	.	.	.	.
4BB	.	4d#	4f#	dar-
.	8A	.	.	.
4EE;	4G;	4e;	4e;	-nach,
4E	4e	4g	4b	das
=9	=9	=9	=9	=9
8D#L	4B	8f#L	4b	ist
8C#J	.	8eJ	.	.
8D#L	4F#	8f#L	4a	ein
8BBJ	.	8d#J	.	.
4E	8EL	4B	8gL	Zei-
.	8F#J	.	8f#J	.
4E	8GL	4B	8eL	-chen
.	8AJ	.	8f#J	.
=10	=10	=10	=10	=10
8EL	4B	4e	4g	vor
8F#J	.	.	.	.
8GL	4B	4e	4g	dem
8EJ	.	.	.	.
8CL	8cL	8eL	4a	jüng-
8BBJ	8eJ	8gJ	.	.
4C	8d#L	8f#L	4a	-sten
.	8eJ	8eJ	.	.
=11	=11	=11	=11	=11
2.BB;	2.d#;	2.f#;	2.b;	Tag.
==|!	==|!	==|!	==|!	==|!
*-	*-	*-	*-	*-
!!!RWG: Key is interpreted using the Humdrum key tool.
!!!URL-pdf: https://s9.imslp.org/files/imglnks/usimg/6/6b/IMSLP24489-PMLP09471-CCARH_Bach_Chorales.pdf#page=46 Musedata edition
!!!URL-pdf: https://s9.imslp.org/files/imglnks/usimg/7/7a/IMSLP04155-Bach_-_BGA_253-438.pdf#page=35 	Bach-Gesellschaft Ausgabe, Band 39 (pp.175-276) Leipzig: Breitkopf und Härtel, 1892. Plate B.W. XXXIX.
!!!END: 1994/06/06
!!!EMD: Converted from MuseData to Humdrum Dec 19, 2000, by Andreas Kornstaedt using muse2kern.
!!!EED: Craig Stuart Sapp
!!!EEV: 2024/03/31
!!!filter-keyboard: satb2gs
!!!title: @{OTL} (@{SCT})
